X: 494
T: Oseh Shalom
C: N.Hirsch
M: C
L: 1/8
Z: 2006 John Chambers <jc:trillian.mit.edu>
P: ABBCBB
%%continuous 1
K: Cm
CE|\
P:A
 "Gm"G3 G "Ab"G2 GG | "Gm"G4- "Ab"G4 | "Ab"A2 AA "Fm"Ac BA | "Gm"G4 "Cm"G4
w: O-*seh sha-lom bim'-ro-mav* hu ha-a-seh sha-lom a-lei-nu
| "Fm"F2 F2 "Bb7"FA GF | "Cm"E4- "Ab"E2 "Fm"zE | "Fm"D>E F3 F G>F | "Cm"E2 "G7"D2 "Cm"C2 z2
w: v'-al kol* Yis-ra-el* v'-i-m'-ru v'-i-m'-ru: "A-men."
P:B
| "C7"GB AG "Fm"F4 | "Bb7"FA GF "Eb"E4 | "Cm"EG FE "D7"D2 DD | "G7"GF EF "Cm"G4
w: Ya-a-seh sha-lom ya-a-seh sha-lom sha-*lom a-lei-nu v'-al kol Yis-ra-el,
| "C7"GB AG "Fm"F4 | "Bb7"FA GF "Eb"E4 | "Cm"EG FE "D7"D2 DD | "G7"GF ED "Cm"C4
w: Ya-a-seh sha-lom ya-a-seh sha-lom sha-*lom a-lei-nu v'-al kol Yis-ra-el.
P:C
| "Cm"Gc cB "Fm"c4 | "Gm"GB B=A B4 | "C7"Ec cB "Fm"c2Bc | "D7"dc B=A "G7"G4 "^->B"
w: Ya-a-seh sha-lom ya-a-seh sha-lom sha-*lom a-lei-nu v'-al kol Yis-ra-el
